X: 1
T: Four Mile Post   [Em]
R: reel
Z: 2020 John Chambers <jc:trillian.mit.edu>
S: https://www.facebook.com/groups/Fiddletuneoftheday/
S: https://www.facebook.com/groups/Fiddletuneoftheday/photos/
M: C|
L: 1/8
K: Em glbc'=trbf'lb
|:\
"Em"E2BE E2BE | E2dB AFEF | "D"DF F/F/F AF F/F/F | DFFF DFAF |
"Em"E2BE E2ef | gefd e2ef | gefd edBe | "D"dBAF DEFD :|
|:\
"Em"Eege bege | EFGA B2AF | "D"DF F/F/F AF F/F/F | DFFF DFAF |
"Em"E2BE E2ef | gefd e2ef | gefd edBe | "D"dBAF DEFD :|
